cached_logos/sn-ipl.svg

<svg xmlns="http://www.w3.org/2000/svg" role="img" viewBox="-7.97 34.03 414.18 213.68"><title>snIPL logo</title><style>svg {enable-background:new 0 0 400 245}</style><style id="style2" type="text/css">.st0{fill:#4c83c3}</style><g id="g130"><path id="polygon4" fill="#4c83c3" d="m 336.1,42.1 h 62.2 V 53.5 H 332 Z" class="st0"/><path id="path6" d="m 221.5,42.1 h 61.6 l 4,11.5 c 0,0 -65.6,0 -65.6,0 0.1,-0.1 0,-11.5 0,-11.5 z" class="st0"/><path id="path8" d="m 172.7,42.1 c 10.1,1 19,4.6 26.5,11.5 0,0 -111.6,0 -111.6,0 0,0 0,-11.5 0,-11.5 z" class="st0"/><g id="g14"><path id="rect10" fill="#4c83c3" d="m 0,42.099998 h 77.5 v 11.4 H 0 Z" class="st0"/></g><path id="path16" d="m 398.3,75 h -73.9 c 0,0 4,-11.4 4,-11.4 h 69.9 z" class="st0"/><path id="polygon18" fill="#4c83c3" d="m 221.5,63.6 h 69.2 l 4.1,11.4 h -73.3 z" class="st0"/><path id="path20" d="m 207.8,63.6 c 1.5,3.8 3.2,7 3.2,11.4 H 87.6 V 63.6 Z" class="st0"/><g id="g26"><path id="rect22" fill="#4c83c3" d="m 0,63.599998 h 77.5 v 11.4 H 0 Z" class="st0"/></g><path id="polygon28" fill="#4c83c3" d="m 376.4,85.1 v 11.4 h -59.6 l 4.1,-11.4 z" class="st0"/><path id="polygon30" fill="#4c83c3" d="M 243.4,96.5 V 85.1 h 54.9 l 4.1,11.4 z" class="st0"/><path id="path32" d="m 212,85 c 0,3.9 -0.5,8 -1.6,11.4 H 176.6 V 85 Z" class="st0"/><g id="g38"><path id="rect34" fill="#4c83c3" d="m 21.6,85.099998 h 33.3 v 11.4 H 21.6 Z" class="st0"/></g><g id="g44"><path id="rect40" fill="#4c83c3" d="m 110,85 h 33.3 V 96.4 H 110 Z" class="st0"/></g><path id="path46" d="m 276.1,108.8 c 0,0 0,8.7 0,8.7 h -32.8 v -11.4 h 62.4 l 3.9,10.6 c 0,0 3.7,-10.6 3.7,-10.6 h 62.9 v 11.4 h -32.6 c 0,0 0,-8.7 0,-8.7 l -3,8.7 H 279 Z" class="st0"/><path id="path48" d="m 110,106.1 h 95.5 v 0 c -2.1,3.8 -5.9,8.4 -9.5,11.4 0,0 -86,0 -86,0 0,0 0,-11.4 0,-11.4 z" class="st0"/><g id="g54"><path id="rect50" fill="#4c83c3" d="m 21.6,106.1 h 33.3 v 11.4 H 21.6 Z" class="st0"/></g><g id="g60"><path id="rect56" fill="#4c83c3" d="m 343.79999,127.6 h 32.6 V 139 h -32.6 z" class="st0"/></g><path id="path62" d="M 276.1,127.6 H 243.3 V 139 c 0,0 32.8,0 32.8,0 0,-0.1 0.1,-11.4 0,-11.4 z" class="st0"/><path id="path64" d="m 337.2,127.6 c -0.1,0 -3.8,11.4 -4,11.4 h -46.4 c 0,0 -4.1,-11.4 -4.1,-11.4 z" class="st0"/><path id="path66" d="m 110,127.6 h 85.8 c 3.9,3.3 7.5,7.3 10.2,11.4 0.2,0 -96.1,0 -96.1,0 0.1,-0.1 0.1,-11.4 0.1,-11.4 z" class="st0"/><path id="path68" d="M 54.9,138.9 V 127.5 H 21.7 c 0,0 0,11.4 0,11.4 0,0 33.2,0 33.2,0 z" class="st0"/><g id="g74"><path id="rect70" fill="#4c83c3" d="m 343.79999,149 h 32.6 v 11.4 h -32.6 z" class="st0"/></g><g id="g80"><path id="rect76" fill="#4c83c3" d="m 243.39999,149 h 32.8 v 11.4 h -32.8 z" class="st0"/></g><path id="path82" d="m 325.6,160.4 c 0,-0.1 4,-11.4 4.1,-11.4 h -39.5 c -0.1,0 4,11.4 4,11.4 0,0 31.4,0.1 31.4,0 z" class="st0"/><path id="path84" d="m 110,160.4 c 0,0 0,-11.4 0,-11.4 h 33.8 c 0,0 0,11.4 0,11.4 -0.1,0 -33.8,0 -33.8,0 z" class="st0"/><path id="path86" d="m 210.8,149 c 1.6,3.4 1.8,7.5 2.1,11.4 H 177.1 V 149 Z" class="st0"/><g id="g92"><path id="rect88" fill="#4c83c3" d="M 21.700001,149 H 55 v 11.4 H 21.700001 Z" class="st0"/></g><g id="g98"><path id="rect94" fill="#4c83c3" d="m 343.79999,170 h 54.5 v 11.4 h -54.5 z" class="st0"/></g><g id="g104"><path id="rect100" fill="#4c83c3" d="m 221.5,170 h 54.6 v 11.4 h -54.6 z" class="st0"/></g><path id="polygon106" fill="#4c83c3" d="m 297.6,170 h 24.5 l -3.9,11.4 h -16.6 z" class="st0"/><path id="path108" d="m 0,170 v 11.4 h 77.5 c 0,0 0,-11.4 0,-11.4 0,0 -77.6,0 -77.5,0 z" class="st0"/><path id="path110" d="m 211.5,170 c -0.8,3.8 -1.6,8.3 -4.3,11.4 h -1 H 87.6 V 170 Z" class="st0"/><path id="polygon112" fill="#4c83c3" d="m 305.3,191.5 h 9.4 l -4,11.4 h -1.5 z" class="st0"/><g id="g118"><path id="rect114" fill="#4c83c3" d="m 343.79999,191.5 h 54.5 v 11.4 h -54.5 z" class="st0"/></g><path id="path120" d="m 87.6,202.9 v -11.4 c 0,0 111.9,0 112.2,0 -7.5,7.2 -17.8,11.2 -28.9,11.4 H 87.6" class="st0"/><g id="g126"><path id="rect122" fill="#4c83c3" d="m 221.5,191.5 h 54.6 v 11.4 h -54.6 z" class="st0"/></g><path id="path128" d="m 77.5,191.5 c 0,0 0,11.4 0,11.4 0,0 -77.4,0 -77.5,0 0,0 0,-11.4 0,-11.4 0,0 77.4,0.1 77.5,0 z" class="st0"/></g><g id="text132" text-anchor="middle"><path id="path158" d="m 185.78906,237.48437 q 0,1.19532 -0.99219,1.96094 -0.98437,0.76563 -2.69531,0.76563 -0.96875,0 -1.78125,-0.22657 -0.80469,-0.23437 -1.35156,-0.50781 v -1.64844 h 0.0781 q 0.69532,0.52344 1.54688,0.83594 0.85156,0.30469 1.63281,0.30469 0.96875,0 1.51563,-0.3125 0.54687,-0.3125 0.54687,-0.98438 0,-0.51562 -0.29687,-0.78125 -0.29688,-0.26562 -1.14063,-0.45312 -0.3125,-0.0703 -0.82031,-0.16406 -0.5,-0.0937 -0.91406,-0.20313 -1.14844,-0.30469 -1.63282,-0.89062 -0.47656,-0.59375 -0.47656,-1.45313 0,-0.53906 0.21875,-1.01562 0.22656,-0.47657 0.67969,-0.85157 0.4375,-0.36718 1.10937,-0.57812 0.67969,-0.21875 1.51563,-0.21875 0.78125,0 1.57812,0.19531 0.80469,0.1875 1.33594,0.46094 v 1.57031 h -0.0781 Q 184.80469,232.875 184,232.59375 q -0.80469,-0.28906 -1.57813,-0.28906 -0.80468,0 -1.35937,0.3125 -0.55469,0.30468 -0.55469,0.91406 0,0.53906 0.33594,0.8125 0.32812,0.27344 1.0625,0.44531 0.40625,0.0937 0.90625,0.1875 0.50781,0.0937 0.84375,0.17188 1.02344,0.23437 1.57812,0.80468 0.55469,0.57813 0.55469,1.53125 z"/><path id="path160" d="m 195.19531,240 h -1.46875 v -4.96875 q 0,-0.60156 -0.0703,-1.125 -0.0703,-0.53125 -0.25781,-0.82813 -0.19532,-0.32812 -0.5625,-0.48437 -0.36719,-0.16406 -0.95313,-0.16406 -0.60156,0 -1.25781,0.29687 -0.65625,0.29688 -1.25781,0.75781 V 240 h -1.46875 v -8.72656 h 1.46875 v 0.96875 q 0.6875,-0.57032 1.42187,-0.89063 0.73438,-0.32031 1.50781,-0.32031 1.41407,0 2.15625,0.85156 0.74219,0.85156 0.74219,2.45313 z"/><path id="path162" d="m 202.24219,240 h -4.59375 v -1.1875 h 1.52343 v -9.25781 h -1.52343 v -1.1875 h 4.59375 v 1.1875 h -1.52344 v 9.25781 h 1.52344 z"/><path id="path164" d="m 212.5,231.88281 q 0,0.77344 -0.27344,1.4375 -0.26562,0.65625 -0.75,1.14063 -0.60156,0.60156 -1.42187,0.90625 -0.82032,0.29687 -2.07032,0.29687 H 206.4375 V 240 h -1.54688 v -11.63281 h 3.15625 q 1.04688,0 1.77344,0.17968 0.72656,0.17188 1.28906,0.54688 0.66407,0.44531 1.02344,1.10937 0.36719,0.66407 0.36719,1.67969 z m -1.60938,0.0391 q 0,-0.60156 -0.21093,-1.04687 -0.21094,-0.44531 -0.64063,-0.72656 -0.375,-0.24219 -0.85937,-0.34375 -0.47657,-0.10938 -1.21094,-0.10938 h -1.53125 v 4.64844 h 1.30469 q 0.9375,0 1.52343,-0.16406 0.58594,-0.17188 0.95313,-0.53907 0.36719,-0.375 0.51562,-0.78906 0.15625,-0.41406 0.15625,-0.92969 z"/><path id="path166" d="m 221.90625,240 h -7.35938 v -11.63281 h 1.54688 V 238.625 h 5.8125 z"/></g></svg>

<svg xmlns="http://www.w3.org/2000/svg" role="img" viewBox="-7.97 34.03 414.18 213.68"><title>snIPL logo</title><style>svg {enable-background:new 0 0 400 245}</style><style id="style1" type="text/css">.st0{fill:#4c83c3}</style><g id="g31"><path id="polygon1" d="M398.3 53.5L332 53.5 336.1 42.1 398.3 42.1z" class="st0"/><path id="path1" d="M221.5,42.1l61.6,0l4,11.5c0,0-65.6,0-65.6,0C221.6,53.5,221.5,42.1,221.5,42.1z" class="st0"/><path id="path2" d="M172.7,42.1c10.1,1,19,4.6,26.5,11.5c0,0-111.6,0-111.6,0c0,0,0-11.5,0-11.5L172.7,42.1z" class="st0"/><g id="g3"><path id="rect2" d="M0 42.1H77.5V53.5H0z" class="st0"/></g><path id="path4" d="M398.3,75h-73.9c0,0,4-11.4,4-11.4h69.9V75z" class="st0"/><path id="polygon4" d="M294.8 75L221.5 75 221.5 63.6 290.7 63.6z" class="st0"/><path id="path5" d="M207.8,63.6c1.5,3.8,3.2,7,3.2,11.4H87.6V63.6H207.8z" class="st0"/><g id="g6"><path id="rect5" d="M0 63.6H77.5V75H0z" class="st0"/></g><path id="polygon6" d="M316.8 96.5L320.9 85.1 376.4 85.1 376.4 96.5z" class="st0"/><path id="polygon7" d="M298.3 85.1L302.4 96.5 243.4 96.5 243.4 85.1z" class="st0"/><path id="path7" d="M212,85c0,3.9-0.5,8-1.6,11.4h-33.8V85H212z" class="st0"/><g id="g8"><path id="rect7" d="M21.6 85.1H54.9V96.5H21.6z" class="st0"/></g><g id="g9"><path id="rect8" d="M110 85H143.3V96.4H110z" class="st0"/></g><path id="path10" d="M276.1,108.8c0,0,0,8.7,0,8.7h-32.8v-11.4h62.4l3.9,10.6c0,0,3.7-10.6,3.7-10.6h62.9v11.4h-32.6 c0,0,0-8.7,0-8.7l-3,8.7l-61.6,0L276.1,108.8z" class="st0"/><path id="path11" d="M110,106.1h95.5v0c-2.1,3.8-5.9,8.4-9.5,11.4c0,0-86,0-86,0C110,117.5,110,106.1,110,106.1z" class="st0"/><g id="g12"><path id="rect11" d="M21.6 106.1H54.9V117.5H21.6z" class="st0"/></g><g id="g13"><path id="rect12" d="M343.8 127.6H376.40000000000003V139H343.8z" class="st0"/></g><path id="path14" d="M276.1,127.6h-32.8v11.4c0,0,32.8,0,32.8,0C276.1,138.9,276.2,127.6,276.1,127.6z" class="st0"/><path id="path15" d="M337.2,127.6c-0.1,0-3.8,11.4-4,11.4l-46.4,0c0,0-4.1-11.4-4.1-11.4H337.2z" class="st0"/><path id="path16" d="M110,127.6h85.8c3.9,3.3,7.5,7.3,10.2,11.4c0.2,0-96.1,0-96.1,0C110,138.9,110,127.6,110,127.6z" class="st0"/><path id="path17" d="M54.9,138.9v-11.4H21.7c0,0,0,11.4,0,11.4C21.7,138.9,54.9,138.9,54.9,138.9z" class="st0"/><g id="g18"><path id="rect17" d="M343.8 149H376.40000000000003V160.4H343.8z" class="st0"/></g><g id="g19"><path id="rect18" d="M243.4 149H276.2V160.4H243.4z" class="st0"/></g><path id="path20" d="M325.6,160.4c0-0.1,4-11.4,4.1-11.4h-39.5c-0.1,0,4,11.4,4,11.4S325.6,160.5,325.6,160.4z" class="st0"/><path id="path21" d="M110,160.4c0,0,0-11.4,0-11.4h33.8c0,0,0,11.4,0,11.4C143.7,160.4,110,160.4,110,160.4z" class="st0"/><path id="path22" d="M210.8,149c1.6,3.4,1.8,7.5,2.1,11.4h-35.8V149H210.8z" class="st0"/><g id="g23"><path id="rect22" d="M21.7 149H55V160.4H21.7z" class="st0"/></g><g id="g24"><path id="rect23" d="M343.8 170H398.3V181.4H343.8z" class="st0"/></g><g id="g25"><path id="rect24" d="M221.5 170H276.1V181.4H221.5z" class="st0"/></g><path id="polygon25" d="M318.2 181.4L301.6 181.4 297.6 170 322.1 170z" class="st0"/><path id="path26" d="M0,170v11.4h77.5c0,0,0-11.4,0-11.4C77.5,170-0.1,170,0,170z" class="st0"/><path id="path27" d="M211.5,170c-0.8,3.8-1.6,8.3-4.3,11.4l-1,0H87.6V170H211.5z" class="st0"/><path id="polygon27" d="M310.7 202.9L309.2 202.9 305.3 191.5 314.7 191.5z" class="st0"/><g id="g28"><path id="rect27" d="M343.8 191.5H398.3V202.9H343.8z" class="st0"/></g><path id="path29" d="M87.6,202.9v-11.4c0,0,111.9,0,112.2,0c-7.5,7.2-17.8,11.2-28.9,11.4L87.6,202.9" class="st0"/><g id="g30"><path id="rect29" d="M221.5 191.5H276.1V202.9H221.5z" class="st0"/></g><path id="path31" d="M77.5,191.5c0,0,0,11.4,0,11.4c0,0-77.4,0-77.5,0c0,0,0-11.4,0-11.4S77.4,191.6,77.5,191.5z" class="st0"/></g><path id="text31" d="m 185.80469,237.48437 q 0,1.19532 -0.99219,1.96094 -0.98438,0.76563 -2.69531,0.76563 -0.96875,0 -1.78125,-0.22657 -0.80469,-0.23437 -1.35157,-0.50781 v -1.64844 h 0.0781 q 0.69531,0.52344 1.54687,0.83594 0.85157,0.30469 1.63282,0.30469 0.96875,0 1.51562,-0.3125 0.54688,-0.3125 0.54688,-0.98438 0,-0.51562 -0.29688,-0.78125 -0.29687,-0.26562 -1.14062,-0.45312 -0.3125,-0.0703 -0.82032,-0.16406 -0.5,-0.0937 -0.91406,-0.20313 -1.14844,-0.30469 -1.63281,-0.89062 -0.47656,-0.59375 -0.47656,-1.45313 0,-0.53906 0.21875,-1.01562 0.22656,-0.47657 0.67968,-0.85157 0.4375,-0.36718 1.10938,-0.57812 0.67969,-0.21875 1.51562,-0.21875 0.78125,0 1.57813,0.19531 0.80469,0.1875 1.33594,0.46094 v 1.57031 h -0.0781 q -0.5625,-0.41406 -1.36719,-0.69531 -0.80468,-0.28906 -1.57812,-0.28906 -0.80469,0 -1.35938,0.3125 -0.55468,0.30468 -0.55468,0.91406 0,0.53906 0.33593,0.8125 0.32813,0.27344 1.0625,0.44531 0.40625,0.0937 0.90625,0.1875 0.50782,0.0937 0.84375,0.17188 1.02344,0.23437 1.57813,0.80468 0.55469,0.57813 0.55469,1.53125 z M 195.20312,240 h -1.46875 v -4.96875 q 0,-0.60156 -0.0703,-1.125 -0.0703,-0.53125 -0.25781,-0.82813 -0.19531,-0.32812 -0.5625,-0.48437 -0.36719,-0.16406 -0.95313,-0.16406 -0.60156,0 -1.25781,0.29687 -0.65625,0.29688 -1.25781,0.75781 V 240 h -1.46875 v -8.72656 h 1.46875 v 0.96875 q 0.6875,-0.57032 1.42187,-0.89063 0.73438,-0.32031 1.50782,-0.32031 1.41406,0 2.15625,0.85156 0.74218,0.85156 0.74218,2.45313 z m 7.04688,0 h -4.59375 v -1.1875 h 1.52344 v -9.25781 h -1.52344 v -1.1875 H 202.25 v 1.1875 h -1.52344 v 9.25781 H 202.25 Z m 10.24219,-8.11719 q 0,0.77344 -0.27344,1.4375 -0.26563,0.65625 -0.75,1.14063 -0.60156,0.60156 -1.42188,0.90625 -0.82031,0.29687 -2.07031,0.29687 h -1.54687 V 240 h -1.54688 v -11.63281 h 3.15625 q 1.04688,0 1.77344,0.17968 0.72656,0.17188 1.28906,0.54688 0.66406,0.44531 1.02344,1.10937 0.36719,0.66407 0.36719,1.67969 z m -1.60938,0.0391 q 0,-0.60156 -0.21094,-1.04687 -0.21093,-0.44531 -0.64062,-0.72656 -0.375,-0.24219 -0.85938,-0.34375 -0.47656,-0.10938 -1.21093,-0.10938 h -1.53125 v 4.64844 h 1.30468 q 0.9375,0 1.52344,-0.16406 0.58594,-0.17188 0.95313,-0.53907 0.36718,-0.375 0.51562,-0.78906 0.15625,-0.41406 0.15625,-0.92969 z M 221.89062,240 h -7.35937 v -11.63281 h 1.54687 V 238.625 h 5.8125 z" text-anchor="middle"/></svg>
